packages/ui-icons/src/Service-logos/24/Rutube.svg

<?xml version="1.0" encoding="UTF-8"?>
<svg viewBox="0 0 32 32" version="1.1" xmlns="http://www.w3.org/2000/svg" xmlns:xlink="http://www.w3.org/1999/xlink">
    <!-- Generator: Sketch 49.1 (51147) - http://www.bohemiancoding.com/sketch -->
    <title>logo/24/rutube_first</title>
    <desc>Created with Sketch.</desc>
    <defs></defs>
    <g id="logo/24/rutube_first" stroke="none" stroke-width="1" fill="none" fill-rule="evenodd">
        <circle id="Oval-2-Copy-2" stroke="#D8D8D8" cx="16" cy="16" r="11.5"></circle>
        <path d="M18.0954677,14.4249368 C18.0954677,15.1334366 17.4772412,15.5353231 16.7150983,15.5353231 L14.3877176,15.5353231 L14.3877176,13.138275 L16.7150983,13.138275 C17.4772412,13.138275 18.0954677,13.6358422 18.0954677,14.3443421 L18.0954677,14.4249368 Z M19.444392,16.9557205 C20.2312523,16.3660061 20.7361299,15.5589714 20.7361299,14.5460328 L20.7361299,14.105276 C20.7361299,12.3267553 19.1844941,11.019707 17.271312,11.019707 L11.8000002,11 L11.8033641,20.9811085 L14.3875713,21 L14.3875713,17.6123026 L17.0440293,17.6123026 L18.7754145,21 L21.8000002,21 L19.444392,16.9557205 Z" id="Fill-1" fill="#333333"></path>
    </g>
</svg>

<svg viewBox="0 0 32 32" xmlns="http://www.w3.org/2000/svg"><g fill="none" fill-rule="evenodd"><circle stroke="#D8D8D8" cx="16" cy="16" r="11.5"/><path d="M18.095 14.425c0 .708-.618 1.11-1.38 1.11h-2.327v-2.397h2.327c.762 0 1.38.498 1.38 1.206v.08Zm1.35 2.53c.786-.589 1.291-1.396 1.291-2.409v-.44c0-1.78-1.552-3.086-3.465-3.086L11.8 11l.003 9.981 2.585.019v-3.388h2.656L18.775 21H21.8l-2.356-4.044Z" fill="#333"/></g></svg>
